src/lib/packages/icons/src/assets/line/database.svg

<svg xmlns="http://www.w3.org/2000/svg" width="24" height="24" fill="none"><path fill="currentColor" d="M12 2.25C7.094 2.25 3.25 4.336 3.25 7v10c0 2.575 4.007 4.75 8.75 4.75s8.75-2.175 8.75-4.75V7c0-2.664-3.844-4.75-8.75-4.75ZM19.25 12c0 1.537-2.978 3.25-7.25 3.25S4.75 13.537 4.75 12V9.692c1.561 1.25 4.199 2.058 7.25 2.058s5.689-.808 7.25-2.058V12ZM12 3.75c4.272 0 7.25 1.713 7.25 3.25s-2.978 3.25-7.25 3.25S4.75 8.537 4.75 7 7.728 3.75 12 3.75Zm0 16.5c-4.358 0-7.25-1.956-7.25-3.25v-2.308c1.561 1.25 4.199 2.058 7.25 2.058s5.689-.808 7.25-2.058V17c0 1.294-2.892 3.25-7.25 3.25Z"/></svg>

<svg width="24" height="24" viewBox="0 0 24 24" fill="none" xmlns="http://www.w3.org/2000/svg">
<path d="M12 2.25C7.094 2.25 3.25 4.336 3.25 7V17C3.25 19.575 7.257 21.75 12 21.75C16.743 21.75 20.75 19.575 20.75 17V7C20.75 4.336 16.906 2.25 12 2.25ZM19.25 12C19.25 13.537 16.272 15.25 12 15.25C7.728 15.25 4.75 13.537 4.75 12V9.69189C6.311 10.9419 8.949 11.75 12 11.75C15.051 11.75 17.689 10.9419 19.25 9.69189V12ZM12 3.75C16.272 3.75 19.25 5.463 19.25 7C19.25 8.537 16.272 10.25 12 10.25C7.728 10.25 4.75 8.537 4.75 7C4.75 5.463 7.728 3.75 12 3.75ZM12 20.25C7.642 20.25 4.75 18.294 4.75 17V14.6919C6.311 15.9419 8.949 16.75 12 16.75C15.051 16.75 17.689 15.9419 19.25 14.6919V17C19.25 18.294 16.358 20.25 12 20.25Z" fill="currentColor"/>
</svg>
